X:1
T:What Did He Do?
T:What Did He Do?
T:William Owen, 1852
T:James Martin Gray, 1903
T:Public Domain Courtesy of the Cyber Hymnal™
C:William Owen, 1852
Z:Public Domain
Z:Courtesy of the Cyber Hymnal™
%%score ( 1 2 ) ( 3 4 )
L:1/8
M:2/2
K:Db
V:1 treble 
V:2 treble 
V:3 bass 
V:4 bass 
V:1
 [Fd]4 [FA]2 [FB]2 | [FA]2 [Fd]2 [=Gc]2 [GB]2 | A4 [FA]4 | [DF]2 [FA]2 [GB]2 [Ge]2 | [Fd]4 [Ec]4 | %5
w: 1.~O lis- ten|to our wond- rous|sto- ry,|Count- ed once a-|mong the|
w: 2.~No an- gel|could His place have|tak- en,|High- est of the|high though|
w: 3.~And yet this|won- drous tale pro-|ceed- eth,|Stir- ring heart and|tongue a-|
w: 4.~Will you sur-|ren- der to this|Sav- ior?|To His scep- ter|hum- bly|
 [Fd]8 | [Fd]4 [FA]2 [FB]2 | [FA]2 [Fd]2 [=Gc]2 [GB]2 | A4 [FA]4 | [DF]2 [FA]2 [GB]2 [Ge]2 | %10
w: lost;|Yet One came|down from Heav- en’s|glo- ry,|Sav- ing us at|
w: he;|The loved One|on the cross for-|sak- en,|Was One of the|
w: flame!|As our high|priest in Heav’n He|plead- eth,|And Christ Je- sus|
w: bow?|You, too, shall|come to know His|fa- vor,|He will save you,|
 [Fd]4 [Ec]4 | [Fd]8 ||"^Refrain" z4 [FA]4 | [DF]2 [FA]2 [FA]2 [GB]2 | [FA]2 [EG]2 [DF]4 | z8 | %16
w: aw- ful|cost!|||||
w: God- head|three!|Who|saved us from e-|ter- nal loss?||
w: is His|name!|||||
w: save you|now.|||||
 z4 [Fd]4 | [Fd]2 [Ec]2 [DB]4 | z4 [Ge]4 | [Ge]2 [Fd]2 [Ec]4 | z4 [Af]4 | [Af]2 e2 [Fd]2 [Ge]2 | %22
w: ||||||
w: What|did He do?|Where|is He now?|In|Heav- en in- ter-|
w: ||||||
w: ||||||
 ([Fd]4 [Ec]4) | [Fd]8 |] %24
w: ||
w: ced- *|ing!|
w: ||
w: ||
V:2
 x8 | x8 | A4 x4 | x8 | x8 | x8 | x8 | x8 | A4 x4 | x8 | x8 | x8 || x8 | x8 | x8 | x8 | x8 | x8 | %18
 x8 | x8 | x8 | x2 (AG) x4 | x8 | x8 |] %24
V:3
 [D,A,]4 [D,D]2 [D,D]2 | [D,D]2 [D,D]2 [E,D]2 [E,D]2 | [A,C]4 [D,D]4 | %3
w: ~ ~ ~|~ ~ ~ ~|~ ~|
 [D,A,]2 [D,D]2 [G,D]2 [G,B,]2 | A,4 [A,,A,]4 | [D,A,]8 | [D,A,]4 [D,D]2 [D,D]2 | %7
w: ~ ~ ~ ~|~ ~|~|~ ~ ~|
 [D,D]2 [D,D]2 [E,D]2 [E,D]2 | [A,C]4 [D,D]4 | [D,A,]2 [D,D]2 [G,D]2 [G,B,]2 | A,4 [A,,A,]4 | %11
w: ~ ~ ~ ~|~ ~|~ ~ ~ ~|~ ~|
 [D,A,]8 || z8 | z8 | z4 [F,A,]4 | [D,F,]2 [F,A,]2 [F,A,]2 [G,B,]2 | [F,A,]2 [E,G,]2 [D,F,]4 | %17
w: ~|||Who|but God’s Son up-|on the cross?|
 z4 [G,B,]4 | [G,B,]2 [F,A,]2 [E,G,]4 | z4 [A,C]4 | [A,C]2 [G,B,]2 [F,A,]2 [A,D]2 | %21
w: He|died for you!|Be-|lieve it thou, In|
 D2 [A,C]2 [B,D]2 [G,B,]2 | A,8 | [D,A,]8 |] %24
w: Heav- en in- ter-|ced-|ing!|
V:4
 x8 | x8 | x8 | x8 | A,4 x4 | x8 | x8 | x8 | x8 | x8 | A,4 x4 | x8 || x8 | x8 | x8 | x8 | x8 | x8 | %18
 x8 | x8 | x8 | D2 x6 | (A,4 A,,4) | x8 |] %24

